client/public/img/game/fall/particles/oak_tree_particle.svg

<?xml version="1.0" encoding="UTF-8" standalone="no"?>
<svg
   width="69"
   height="113.618"
   viewBox="0 0 69 113.61802"
   fill="none"
   version="1.1"
   id="svg52"
   xmlns="http://www.w3.org/2000/svg"
   xmlns:svg="http://www.w3.org/2000/svg"
   xmlns:rdf="http://www.w3.org/1999/02/22-rdf-syntax-ns#"
   xmlns:cc="http://creativecommons.org/ns#"
   xmlns:dc="http://purl.org/dc/elements/1.1/">
  <defs
     id="defs56" />
  <path
     d="M 26.26145,60.058943 22.965301,32.102348 43.067702,2.9155199 38.611819,43.849085 49.766674,90.034083 40.518229,110.70233 Z"
     fill="#6d4a2c"
     stroke="#1b1917"
     stroke-width="5.83269"
     stroke-miterlimit="16"
     stroke-linejoin="round"
     id="path4"
     style="stroke:#312114;stroke-opacity:1" />
  <path
     d="m 68.997824,61.928489 c -5.051432,-7.36848 -21.324339,-18.049461 -24.917353,-6.67405 -2.575895,11.647942 16.856727,10.53503 24.916215,6.679748 L 69,61.935324 c 0,-0.0022 -0.0022,-0.0058 -0.0022,-0.0068 z"
     fill="#5f926a"
     id="path46"
     style="fill:#d1982e;fill-opacity:0.92156863;stroke-width:1.14027;stroke:none" />
  <path
     d="m 60.855098,26.192172 -0.0044,0.008 C 49.867496,30.04861 30.943437,46.879112 44.079443,55.254455 57.900759,62.442767 63.013765,37.639438 60.856359,26.203591 l 0.0045,-0.008 c -0.0011,0.0011 -0.0033,0.0022 -0.0045,0.0022 0,-0.0022 -0.0011,-0.0033 -0.0011,-0.0058 z"
     fill="#587e60"
     id="path48"
     style="fill:#d6a243;fill-opacity:0.92156863;stroke-width:1.14027;stroke:none" />
  <path
     d="M 16.375341,44.790494 C 23.627083,39.819091 34.138844,23.803993 22.943662,20.267901 11.480255,17.732818 12.57553,36.857571 16.369738,44.789374 l -0.0011,0.0033 c 0.0022,0 0.0057,-0.0022 0.0066,-0.0022 z"
     fill="#5f926a"
     id="path46-6"
     style="fill:#d1982e;fill-opacity:0.92156863;stroke-width:1.12221;stroke:none" />
  <path
     d="M 8.3803665e-5,6.3750796 0.00795283,6.3794544 C 3.795414,17.188608 20.359281,35.812857 28.601935,22.884962 35.676359,9.2826141 11.265987,4.250612 0.01131586,6.3738389 l -0.00786902,-0.00437 c 0.00108897,0.00109 0.00218742,0.00328 0.00218742,0.00437 -0.00218742,0 -0.00327639,0.00109 -0.00563426,0.00109 z"
     fill="#587e60"
     id="path48-7"
     style="fill:#d6a243;fill-opacity:0.92156863;stroke-width:1.12221;stroke:none" />
  <path
     d="m 38.721157,35.266503 0.0011,0.0045 c -3.299957,6.517774 -4.410585,22.16239 5.357036,19.983318 9.549834,-2.996647 0.765127,-15.990116 -5.352465,-19.985652 l -0.0011,-0.0033 c 0.0011,-0.0011 0,0 0,0 -0.0011,-0.0011 -0.0033,0.0022 -0.0044,0.0011 z"
     fill="#77a37a"
     id="path50"
     style="fill:#d1982e;fill-opacity:0.92156863;stroke-width:1.14027;stroke:none" />
  <metadata
     id="metadata3223">
    <rdf:RDF>
      <cc:Work
         rdf:about="">
        <dc:creator>
          <cc:Agent>
            <dc:title>Radians</dc:title>
          </cc:Agent>
        </dc:creator>
      </cc:Work>
    </rdf:RDF>
  </metadata>
</svg>

<svg xmlns="http://www.w3.org/2000/svg" width="69" height="113.618" fill="none"><path fill="#6d4a2c" stroke="#1b1917" stroke-linejoin="round" stroke-miterlimit="16" stroke-width="5.833" d="m26.261 60.059-3.296-27.957L43.068 2.916l-4.456 40.933 11.155 46.185-9.249 20.668Z" style="stroke:#312114;stroke-opacity:1"/><path fill="#5f926a" d="M68.998 61.928C63.946 54.56 47.673 43.88 44.08 55.254c-2.575 11.648 16.857 10.535 24.917 6.68l.003.001z" style="fill:#d1982e;fill-opacity:.92156863;stroke-width:1.14027;stroke:none"/><path fill="#587e60" d="m60.855 26.192-.004.008C49.867 30.05 30.943 46.88 44.079 55.254c13.822 7.189 18.935-17.615 16.777-29.05l.005-.008-.005.002z" style="fill:#d6a243;fill-opacity:.92156863;stroke-width:1.14027;stroke:none"/><path fill="#5f926a" d="M16.375 44.79c7.252-4.97 17.764-20.986 6.569-24.522-11.464-2.535-10.368 16.59-6.574 24.521l-.001.004z" style="fill:#d1982e;fill-opacity:.92156863;stroke-width:1.12221;stroke:none"/><path fill="#587e60" d="m0 6.375.008.004c3.787 10.81 20.351 29.434 28.594 16.506C35.676 9.283 11.266 4.251.012 6.374l-.009-.005.003.005z" style="fill:#d6a243;fill-opacity:.92156863;stroke-width:1.12221;stroke:none"/><path fill="#77a37a" d="m38.721 35.267.001.004c-3.3 6.518-4.41 22.162 5.357 19.983 9.55-2.996.765-15.99-5.352-19.985l-.001-.004q-.002.002-.005.001z" style="fill:#d1982e;fill-opacity:.92156863;stroke-width:1.14027;stroke:none"/></svg>
